common/src/main/resources/icons/plugins/clion/ShowOtherBranches.svg

<svg xmlns="http://www.w3.org/2000/svg" width="16" height="16" fill="#FF8A65" data-big="true" viewBox="0 0 24 24"><path d="M6 2a3 3 0 0 1 3 3c0 1.28-.81 2.38-1.94 2.81.09.46.33 1.02.94 1.82 1 1.29 3 3.2 4 4.54 1-1.34 3-3.25 4-4.54.61-.8.85-1.36.94-1.82A3.015 3.015 0 0 1 15 5a3 3 0 0 1 3-3 3 3 0 0 1 3 3c0 1.32-.86 2.45-2.05 2.85-.08.52-.31 1.15-.95 1.98-1 1.34-3 3.25-4 4.55-.61.79-.85 1.35-.94 1.81C14.19 16.62 15 17.72 15 19a3 3 0 0 1-3 3 3 3 0 0 1-3-3c0-1.28.81-2.38 1.94-2.81-.09-.46-.33-1.02-.94-1.81-1-1.3-3-3.21-4-4.55-.64-.83-.87-1.46-.95-1.98A3.015 3.015 0 0 1 3 5a3 3 0 0 1 3-3m0 2a1 1 0 0 0-1 1 1 1 0 0 0 1 1 1 1 0 0 0 1-1 1 1 0 0 0-1-1m12 0a1 1 0 0 0-1 1 1 1 0 0 0 1 1 1 1 0 0 0 1-1 1 1 0 0 0-1-1m-6 14a1 1 0 0 0-1 1 1 1 0 0 0 1 1 1 1 0 0 0 1-1 1 1 0 0 0-1-1"/></svg>

<!--
  - The MIT License (MIT)
  -
  - Copyright (c) 2015-2024 Elior "Mallowigi" Boukhobza
  -
  - Permission is hereby granted, free of charge, to any person obtaining a copy
  - of this software and associated documentation files (the "Software"), to deal
  - in the Software without restriction, including without limitation the rights
  - to use, copy, modify, merge, publish, distribute, sublicense, and/or sell
  - copies of the Software, and to permit persons to whom the Software is
  - furnished to do so, subject to the following conditions:
  -
  - The above copyright notice and this permission notice shall be included in all
  - copies or substantial portions of the Software.
  -
  - THE SOFTWARE IS PROVIDED "AS IS", WITHOUT WARRANTY OF ANY KIND, EXPRESS OR
  - IMPLIED, INCLUDING BUT NOT LIMITED TO THE WARRANTIES OF MERCHANTABILITY,
  - FITNESS FOR A PARTICULAR PURPOSE AND NONINFRINGEMENT. IN NO EVENT SHALL THE
  - AUTHORS OR COPYRIGHT HOLDERS BE LIABLE FOR ANY CLAIM, DAMAGES OR OTHER
  - LIABILITY, WHETHER IN AN ACTION OF CONTRACT, TORT OR OTHERWISE, ARISING FROM,
  - OUT OF OR IN CONNECTION WITH THE SOFTWARE OR THE USE OR OTHER DEALINGS IN THE
  - SOFTWARE.
  -->


<svg data-big="true" xmlns="http://www.w3.org/2000/svg" version="1.1" width="16px" height="16px" fill="#FF8A65"
     viewBox="0 0 24 24">
  <path
    d="M6,2A3,3 0 0,1 9,5C9,6.28 8.19,7.38 7.06,7.81C7.15,8.27 7.39,8.83 8,9.63C9,10.92 11,12.83 12,14.17C13,12.83 15,10.92 16,9.63C16.61,8.83 16.85,8.27 16.94,7.81C15.81,7.38 15,6.28 15,5A3,3 0 0,1 18,2A3,3 0 0,1 21,5C21,6.32 20.14,7.45 18.95,7.85C18.87,8.37 18.64,9 18,9.83C17,11.17 15,13.08 14,14.38C13.39,15.17 13.15,15.73 13.06,16.19C14.19,16.62 15,17.72 15,19A3,3 0 0,1 12,22A3,3 0 0,1 9,19C9,17.72 9.81,16.62 10.94,16.19C10.85,15.73 10.61,15.17 10,14.38C9,13.08 7,11.17 6,9.83C5.36,9 5.13,8.37 5.05,7.85C3.86,7.45 3,6.32 3,5A3,3 0 0,1 6,2M6,4A1,1 0 0,0 5,5A1,1 0 0,0 6,6A1,1 0 0,0 7,5A1,1 0 0,0 6,4M18,4A1,1 0 0,0 17,5A1,1 0 0,0 18,6A1,1 0 0,0 19,5A1,1 0 0,0 18,4M12,18A1,1 0 0,0 11,19A1,1 0 0,0 12,20A1,1 0 0,0 13,19A1,1 0 0,0 12,18Z"/>
</svg>
